source/img/icon-feature-gift.svg

<svg height="34" viewBox="0 0 34 34" width="34" xmlns="http://www.w3.org/2000/svg"><path d="m3.56 33.243h12.504v-13.91h-12.504zm28.182-23.62h-7.335c.521-.267.984-.549 1.396-.845 1.588-1.133 2.424-2.57 2.42-3.999.002-1.169-.556-2.202-1.359-2.901-.805-.704-1.869-1.119-3.016-1.121-1.22-.001-2.352.421-3.32 1.069-1.459.979-2.606 2.451-3.424 4.067-.039.079-.078.157-.115.236-.299-.623-.647-1.226-1.041-1.792-.691-.985-1.523-1.86-2.497-2.511-.97-.646-2.103-1.069-3.322-1.069-1.213.004-2.323.514-3.155 1.295-.828.783-1.41 1.885-1.412 3.135-.002.73.211 1.494.649 2.188.552.872 1.424 1.628 2.633 2.248h-6.588c-.878 0-1.591.712-1.591 1.59v5.897h15.396v-7.488h1.873v7.488h15.3960094l-.0000094-5.897c.003-.879-.709-1.59-1.588-1.59zm-22.362-2.339c-.622-.391-1-.785-1.22-1.135-.22-.354-.294-.662-.296-.963-.004-.504.248-1.042.691-1.461.437-.415 1.028-.667 1.562-.667h.013c.685 0 1.366.231 2.046.683 1.018.671 1.975 1.85 2.645 3.187.342.676.609 1.39.789 2.087-3.082-.321-5.078-1.002-6.23-1.731zm10.537-1.627c.557-.797 1.21-1.466 1.887-1.916.68-.451 1.362-.683 2.047-.683h.006c.574 0 1.117.22 1.494.55.377.336.571.739.573 1.171-.004.512-.272 1.259-1.467 2.132-1.138.825-3.101 1.673-6.127 2.265.29-1.202.847-2.472 1.587-3.519zm-1.98 27.586h12.506v-13.91h-12.506z" fill="#63d1bb" fill-rule="evenodd" transform=""/></svg>

<?xml version="1.0" encoding="UTF-8"?>
<svg width="34px" height="34px" viewBox="0 0 34 34" version="1.1" xmlns="http://www.w3.org/2000/svg" xmlns:xlink="http://www.w3.org/1999/xlink">
    <!-- Generator: Sketch 52.2 (67145) - http://www.bohemiancoding.com/sketch -->
    <title>icon-feature-gift</title>
    <desc>Created with Sketch.</desc>
    <g id="Mishka-Mobile" stroke="none" stroke-width="1" fill="none" fill-rule="evenodd">
        <g id="Mishka-Index-Mobile" transform="translate(-32.000000, -2415.000000)" fill="#63D1BB">
            <g id="about" transform="translate(0.000000, 1736.000000)">
                <g id="icon-feature-gift" transform="translate(32.000000, 679.000000)">
                    <path d="M3.56,33.243 L16.064,33.243 L16.064,19.333 L3.56,19.333 L3.56,33.243 Z M31.742,9.623 L24.407,9.623 C24.928,9.356 25.391,9.074 25.803,8.778 C27.391,7.645 28.227,6.208 28.223,4.779 C28.225,3.61 27.667,2.577 26.864,1.878 C26.059,1.174 24.995,0.759 23.848,0.757 C22.628,0.756 21.496,1.178 20.528,1.826 C19.069,2.805 17.922,4.277 17.104,5.893 C17.065,5.972 17.026,6.05 16.989,6.129 C16.69,5.506 16.342,4.903 15.948,4.337 C15.257,3.352 14.425,2.477 13.451,1.826 C12.481,1.18 11.348,0.757 10.129,0.757 C8.916,0.761 7.806,1.271 6.974,2.052 C6.146,2.835 5.564,3.937 5.562,5.187 C5.56,5.917 5.773,6.681 6.211,7.375 C6.763,8.247 7.635,9.003 8.844,9.623 L2.256,9.623 C1.378,9.623 0.665,10.335 0.665,11.213 L0.665,17.11 L16.061,17.11 L16.061,9.622 L17.934,9.622 L17.934,17.11 L33.3300094,17.11 L33.33,11.213 C33.333,10.334 32.621,9.623 31.742,9.623 Z M9.38,7.284 C8.758,6.893 8.38,6.499 8.16,6.149 C7.94,5.795 7.866,5.487 7.864,5.186 C7.86,4.682 8.112,4.144 8.555,3.725 C8.992,3.31 9.583,3.058 10.117,3.058 L10.13,3.058 C10.815,3.058 11.496,3.289 12.176,3.741 C13.194,4.412 14.151,5.591 14.821,6.928 C15.163,7.604 15.43,8.318 15.61,9.015 C12.528,8.694 10.532,8.013 9.38,7.284 Z M19.917,5.657 C20.474,4.86 21.127,4.191 21.804,3.741 C22.484,3.29 23.166,3.058 23.851,3.058 L23.857,3.058 C24.431,3.058 24.974,3.278 25.351,3.608 C25.728,3.944 25.922,4.347 25.924,4.779 C25.92,5.291 25.652,6.038 24.457,6.911 C23.319,7.736 21.356,8.584 18.33,9.176 C18.62,7.974 19.177,6.704 19.917,5.657 Z M17.937,33.243 L30.443,33.243 L30.443,19.333 L17.937,19.333 L17.937,33.243 Z" id="Shape"></path>
                </g>
            </g>
        </g>
    </g>
</svg>
